X:14
T:The £10 Fiddle.
C: J. Scott Skinner
R: reel
M:C|
L:1/8
Z: Jason R. Fruit <jason@starlight-glimmer>
K:A
E | {G}A2 (ED) !<(!CEA!<)!f | eAfA GBBG | {G}A2 EC DFBA | !<(!GBe!<)!g !>(!aAA!>)!E | !>!A/A/A (ED) !<(!CEA!<)!f |
x2 ax GBBG & eAfA x4 | !>!A/A/A (EC) DFBA | !<(!GBe!<)!g !>(!aA !>)!A || !f!g | {g}!>!a/a/a (ea) .c.a.A.g | x3 a x4 & aece fBBg |
!>!a/a/a (ec) !>!f/f/f (dB) | GBeg aAA(a | !ff!"_with force".g.a).e.a .c.a.A.a | caAa fBBc | {G}A2 (EC) DFBA | GBeg aA !fermata!A |]

